!!!!SEGMENT: pl-gd--ee-1638--008-020_marenzio-luca--il-quarto-libro-de-madrigalia-a-sei-voci-donne-il-celeste-lume-a-9.krn
!!!cenid: 15xx:882
!!!COM: Marenzio, Luca
!!!COM-rismID: pe30003955
!!!CDT: ~1553-1599/08/22
!!!CNT: Italian
!!!GTL: Il Quarto Libro de madrigalia a sei voci
!!!OTL: Donne il celeste lume a 9
!!!OMV: 020
!!!PDT: 1587
!!!AGN:
!!!SMS-siglum: PL-GD
!!!SMS-shelfmark: Ee 1638
!!!SMS-variant:
!!!SMS-altvar:
!!!SMS-shelfwork: 008-020 G
!!!NIFC-rismSourceID: 1001202747
!!!NIFC-rismChildID: 990039254
!!!NIFC-islandoraID: pl-gd:57883
!!!URL-pdf-islandora: https://repozytorium.nifc.pl/islandora/object/pl-gd%3A57883/datastream/PDF/view
!!!URL-scan: https://polish.musicsources.pl/pl/lokalizacje/galeria/klocki-introligatorskie/655 @EN{Scan on Polish Music Sources Website} @PL{Skany w portalu Dziedzictwo Muzyki Polskiej w otwartym dostępie}
!!!ONB-nifc: UWAGA: utwór na 9 głosów. UWAGA: zbiór na stronach: Canto: s. 706-716, Alto: s. 554-564, Tenore: s. 402-412, Basso: s.250-260, Quinto: s. 98-108, Sesto: s. 16-26. Uwaga: utwory podzielone wg tytułów w spisach treści dostępnych na końcu każdej księgi głosowej.
!!!AIN: 2 alto 2 bass 3 soprn 2 tenor
!!!key: G
**kern	**text	**kern	**text	**kern	**text	**kern	**text	**kern	**text	**kern	**text	**kern	**text	**kern	**text	**kern	**text
*part9	*part9	*part8	*part8	*part7	*part7	*part6	*part6	*part5	*part5	*part4	*part4	*part3	*part3	*part2	*part2	*part1	*part1
*staff9	*staff9	*staff8	*staff8	*staff7	*staff7	*staff6	*staff6	*staff5	*staff5	*staff4	*staff4	*staff3	*staff3	*staff2	*staff2	*staff1	*staff1
*I"BASSO	*	*I"BASSO	*	*I"TENORE	*	*I"TENORE	*	*I"ALTO	*	*I"ALTO	*	*I"CANTO	*	*I"CANTO	*	*I"CANTO	*
*I'B II	*	*I'B I	*	*I'T II	*	*I'T I	*	*I'A II	*	*I'A I	*	*I'S III	*	*I'S II	*	*I'S I	*
*ICvox	*	*ICvox	*	*ICvox	*	*ICvox	*	*ICvox	*	*ICvox	*	*ICvox	*	*ICvox	*	*ICvox	*
*Ibass	*	*Ibass	*	*Itenor	*	*Itenor	*	*Ialto	*	*Ialto	*	*Isoprn	*	*Isoprn	*	*Isoprn	*
*clefF4	*	*clefF4	*	*clefC4	*	*clefC4	*	*clefC3	*	*clefC3	*	*clefC1	*	*clefC1	*	*clefC1	*
*k[]	*	*k[]	*	*k[]	*	*k[]	*	*k[]	*	*k[]	*	*k[]	*	*k[]	*	*k[]	*
*G:	*	*G:	*	*G:	*	*G:	*	*G:	*	*G:	*	*G:	*	*G:	*	*G:	*
*M2/1	*	*M2/1	*	*M2/1	*	*M2/1	*	*M2/1	*	*M2/1	*	*M2/1	*	*M2/1	*	*M2/1	*
*met(C)	*	*met(C)	*	*met(C)	*	*met(C)	*	*met(C)	*	*met(C)	*	*met(C)	*	*met(C)	*	*met(C)	*
=1-	=1-	=1-	=1-	=1-	=1-	=1-	=1-	=1-	=1-	=1-	=1-	=1-	=1-	=1-	=1-	=1-	=1-
!LO:TX:a:t=Secondo Choro a 9.	!	!LO:TX:a:t=Primo Choro a 9.	!	!LO:TX:a:t=Secondo Choro à 9.	!	!LO:TX:a:t=Primo Choro a 9.	!	!LO:TX:a:t=Secondo Choro à 9.	!	!LO:TX:a:t=Primo Choro a 9.	!	!LO:TX:a:t=Canto terzo fe piace a 9.	!	!LO:TX:a:t=Secondo Choro a 9.	!	!	!
!	!	!	!	!	!	!	!	!	!	!	!	!LO:TX:b:t=DOnne.	!	!	!	!LO:TX:a:t=Primo Choro a 9.	!
1r	.	1G	DOn-	1r	.	1B	DOn-	1r	.	1d	DOn-	00r	.	1r	.	1dd	DOn-
1G	DOn-	1GG	-ne	1B	DOn-	1G	-ne	1g	DOn-	1d	-ne	.	.	1dd	DOn-	1b	-ne
=2-	=2-	=2-	=2-	=2-	=2-	=2-	=2-	=2-	=2-	=2-	=2-	=2-	=2-	=2-	=2-	=2-	=2-
1GG	-ne	2r	.	1G	-ne	2r	.	1d	-ne	2r	.	.	.	1b	-ne	2r	.
.	.	1G	il	.	.	1B	il	.	.	1d	il	.	.	.	.	1b	il
1r	.	.	.	1r	.	.	.	1r	.	.	.	.	.	1r	.	.	.
.	.	2E\	ce-	.	.	2c\	ce-	.	.	2e\	ce-	.	.	.	.	2g/	ce-
=3-	=3-	=3-	=3-	=3-	=3-	=3-	=3-	=3-	=3-	=3-	=3-	=3-	=3-	=3-	=3-	=3-	=3-
0r	.	2F\	-leſ-	0r	.	2c\	-leſ-	0r	.	2A/	-leſ-	0r	.	0r	.	2a\	-leſ-
.	.	2D/	-te	.	.	2d\	-te	.	.	2f\	-te	.	.	.	.	2b\	-te
.	.	1C	lu-	.	.	1e	lu-	.	.	1g	lu-	.	.	.	.	1cc	lu-
=4-	=4-	=4-	=4-	=4-	=4-	=4-	=4-	=4-	=4-	=4-	=4-	=4-	=4-	=4-	=4-	=4-	=4-
1r	.	1G	-me	1r	.	1d	-me	1r	.	1g	-me	4dd\	Stra-	1r	.	1b	-me
.	.	.	.	.	.	.	.	.	.	.	.	4dd\	-ua-	.	.	.	.
.	.	.	.	.	.	.	.	.	.	.	.	2dd\	-gan-	.	.	.	.
!	!	!	!	!	!	!	!	!	!	!LO:TX:t=P:problem:brakująca pauza!	!	!	!	!	!	!	!
1G	Don-	1r	.	1B	Don-	1r	.	1d	Don-	1ryy	.	4.b\	-za	1dd	Don-	1r	.
.	.	.	.	.	.	.	.	.	.	.	.	8cc\	d`A-	.	.	.	.
.	.	.	.	.	.	.	.	.	.	.	.	1dd\	-mo-	.	.	.	.
=5-	=5-	=5-	=5-	=5-	=5-	=5-	=5-	=5-	=5-	=5-	=5-	=5-	=5-	=5-	=5-	=5-	=5-
1GG	-ne	1G	Don-	1G	-ne	1B	Don-	1d	-ne	1d	Don-	.	.	1b	-ne	1dd	Don-
.	.	.	.	.	.	.	.	.	.	.	.	2g/	-re	.	.	.	.
2r	.	1GG	-ne	2r	.	1G	-ne	2r	.	1d	-ne	1r	.	2r	.	1b	-ne
1G\	il	.	.	1B\	il	.	.	1d\	il	.	.	.	.	1b\	il	.	.
=6-	=6-	=6-	=6-	=6-	=6-	=6-	=6-	=6-	=6-	=6-	=6-	=6-	=6-	=6-	=6-	=6-	=6-
.	.	0r	.	.	.	0r	.	.	.	0r	.	0r	.	.	.	0r	.
2E\	ce-	.	.	2c\	ce-	.	.	2e\	ce-	.	.	.	.	2g/	ce-	.	.
2F\	-leſ-	.	.	2c\	-leſ-	.	.	2A/	-leſ-	.	.	.	.	2a\	-leſ-	.	.
2D/	-te	.	.	2d\	-te	.	.	2f\	-te	.	.	.	.	2b\	-te	.	.
=7-	=7-	=7-	=7-	=7-	=7-	=7-	=7-	=7-	=7-	=7-	=7-	=7-	=7-	=7-	=7-	=7-	=7-
1C	lu-	1r	.	1e	lu-	1r	.	1g	lu-	1r	.	1r	.	1cc	lu-	1r	.
2G\	-me	4r	.	2d\	-me	4r	.	2g\	-me	4r	.	4dd\	Stra-	2b\	-me	4r	.
.	.	4G\	De	.	.	4B\	De	.	.	4d\	De	4dd\	-ua-	.	.	4b\	De
2r	.	4G\	gl`oc-	2r	.	4B\	gl`oc-	2r	.	4d\	gl`oc-	2dd\	-gan-	2r	.	4b\	gl`oc-
.	.	4D/	-chi	.	.	4d\	-chi	.	.	4f\	-chi	.	.	.	.	4a\	-chi
*	*	*	*	*	*	*	*	*	*	*	*	*custos:b	*	*	*	*custos:g	*
!	!	!	!	!	!	!	!	!	!	!	!	!LO:LB:g=original	!	!	!	!LO:LB:g=original	!
=8-	=8-	=8-	=8-	=8-	=8-	=8-	=8-	=8-	=8-	=8-	=8-	=8-	=8-	=8-	=8-	=8-	=8-
2r	.	2E\	voſ-	2r	.	2G/	uoſ-	2r	.	2e\	voſ-	4.b\	-za	2r	.	2g/	voſ-
.	.	.	.	.	.	.	.	.	.	.	.	8cc\	d A-	.	.	.	.
4r	.	2D/	-tri	4r	.	2d\	-tri	4r	.	2A/	-tri	2dd\	-mo-	4r	.	2f#X/	-tri
4D/	De	.	.	4A/	De	.	.	4d\	De	.	.	.	.	4dd\	De	.	.
*	*	*	*	*	*	*	*	*	*	*custos:e	*	*	*	*	*	*	*
!	!	!	!	!	!	!	!	!	!	!LO:LB:g=original	!	!	!	!	!	!	!
4.E\	gl`oc-	1r	.	4e\	gl`oc-	1r	.	4g\	gl`oc-	1r	.	1g	-re	4b\	gl`oc-	1r	.
.	.	.	.	4e\	-chi	.	.	4g\	-chi	.	.	.	.	2cc\	-chi	.	.
8F\	-chi	.	.	.	.	.	.	.	.	.	.	.	.	.	.	.	.
2G\	vo-	.	.	2d\	uo-	.	.	2g\	uo-	.	.	.	.	.	.	.	.
.	.	.	.	.	.	.	.	.	.	.	.	.	.	4b\	vo-	.	.
*custos:C	*	*custos:C	*	*custos:c	*	*custos:c	*	*	*	*	*	*	*	*custos:cc	*	*	*
!LO:LB:g=original	!	!LO:LB:g=original	!	!LO:LB:g=original	!	!LO:LB:g=original	!	!	!	!	!	!	!	!LO:LB:g=original	!	!	!
=9-	=9-	=9-	=9-	=9-	=9-	=9-	=9-	=9-	=9-	=9-	=9-	=9-	=9-	=9-	=9-	=9-	=9-
1C	-ſtri	2r	.	1c	-ſtri	2r	.	1e	-ſtri	2r	.	0r	.	1cc	-ſtri	2r	.
.	.	1C	che	.	.	1c	che	.	.	1e	che	.	.	.	.	1g	che
*	*	*	*	*	*	*	*	*custos:d	*	*	*	*	*	*	*	*	*
!	!	!	!	!	!	!	!	!LO:LB:g=original	!	!	!	!	!	!	!	!	!
1r	.	.	.	1r	.	.	.	1r	.	.	.	.	.	1r	.	.	.
.	.	2D/	ſi	.	.	2A/	ſi	.	.	2d\	ſi	.	.	.	.	2fny/	ſi
=10-	=10-	=10-	=10-	=10-	=10-	=10-	=10-	=10-	=10-	=10-	=10-	=10-	=10-	=10-	=10-	=10-	=10-
0r	.	1.E	dol-	0r	.	1.G#X	dol-	0r	.	1.B	dol-	1r	.	0r	.	1.e	dol-
.	.	.	.	.	.	.	.	.	.	.	.	2r	.	.	.	.	.
.	.	2D/	-ce	.	.	2A/	-ce	.	.	2d\	-ce	4dd\	Stra-	.	.	2f#X/	-ce
.	.	.	.	.	.	.	.	.	.	.	.	4dd\	-ua-	.	.	.	.
=11-	=11-	=11-	=11-	=11-	=11-	=11-	=11-	=11-	=11-	=11-	=11-	=11-	=11-	=11-	=11-	=11-	=11-
1r	.	1G	ſplen-	1r	.	1B	ſplen-	1r	.	1d	ſplen-	2dd\	-gan-	1r	.	1g	ſplen-
.	.	.	.	.	.	.	.	.	.	.	.	4.b\	-za	.	.	.	.
.	.	.	.	.	.	.	.	.	.	.	.	8cc\	d`A-	.	.	.	.
4r	.	2G\	-de	4r	.	2B\	-de	4r	.	2d\	-de	2dd\	-mo-	4r	.	2g/	-de
4G\	I	.	.	4B\	I	.	.	4d\	I	.	.	.	.	4dd\	I	.	.
4E\	noſ-	2r	.	4B\	noſ-	2r	.	4.g\	noſ-	2r	.	2g/	-re	4.ee\	noſ-	2r	.
4C/	-tri	.	.	4e\	-tri	.	.	.	.	.	.	.	.	.	.	.	.
.	.	.	.	.	.	.	.	8g\	-tri	.	.	.	.	8dd\	-tri	.	.
=12-	=12-	=12-	=12-	=12-	=12-	=12-	=12-	=12-	=12-	=12-	=12-	=12-	=12-	=12-	=12-	=12-	=12-
4E\	pet-	4r	.	4e\	pet-	4r	.	4G/	pet-	4r	.	00r	.	4cc\	pet-	4r	.
4G\	-ti ac-	4G\	I	4d\	-ti ac-	4B\	I	4G/	-ti ac-	4d\	I	.	.	4b\	-ti ac-	4dd\	I
2C/	-cen-	4E\	noſ-	4c\	-cen-	4e\	noſ-	2G/	-cen-	4.g\	noſ-	.	.	2cc\	-cen-	4.ee\	noſ-
.	.	4C/	-tri	2G/	-de	4e\	-tri	.	.	.	.	.	.	.	.	.	.
.	.	.	.	.	.	.	.	.	.	8g\	-tri	.	.	.	.	8dd\	-tri
4C/	-de	4E\	pet-	.	.	4e\	pet-	4g\	-de	4G/	pet-	.	.	4cc\	-de	4cc\	pet-
4G\	I	4G\	-ti ac-	4B\	I	4d\	-ti ac-	4d\	I	4G/	-ti ac-	.	.	4dd\	I	4b\	-ti
4E\	noſ-	2C/	-cẽ(n)-	4e\	noſ-	4c\	-cen-	4.g\	noſ-	2G/	-cen-	.	.	4.ee\	noſ-	2cc\	ac-
4C/	-tri	.	.	4e\	-tri	2Gny/	-de	.	.	.	.	.	.	.	.	.	.
.	.	.	.	.	.	.	.	8g\	-tri	.	.	.	.	8dd\	-tri	.	.
=13-	=13-	=13-	=13-	=13-	=13-	=13-	=13-	=13-	=13-	=13-	=13-	=13-	=13-	=13-	=13-	=13-	=13-
4E\	pet-	4C/	-de	4e\	pet-	.	.	4G/	pet-	4g\	-de	.	.	4cc\	pet-	4cc\	-cen-
4G\	-ti ac-	4G\	I	4d\	-ti ac-	4B\	I	4G/	-ti ac-	4d\	I	.	.	4b\	-ti ac-	4dd\	-de I
2C/	-cẽ(n)-	4E\	noſ-	4c\	-cen-	4e\	noſ-	2G/	-cen-	4.g\	noſ-	.	.	2cc\	-cen-	4.ee\	noſ-
.	.	4C/	-tri	2G/	-de	4e\	-tri	.	.	.	.	.	.	.	.	.	.
.	.	.	.	.	.	.	.	.	.	8g\	-tri	.	.	.	.	8dd\	-tri
*	*	*	*	*	*	*	*	*	*	*custos:G	*	*	*	*	*	*custos:cc	*
!	!	!	!	!	!	!	!	!	!	!LO:LB:g=original	!	!	!	!	!	!LO:LB:g=original	!
4C/	-de	4E\	pet-	.	.	4e\	pet-	4g\	-de	4G/	pet-	.	.	4cc\	-de	4cc\	pet-
*	*	*	*	*	*	*	*	*	*ij	*	*	*	*	*	*	*	*
4G\	I	4G\	-ti ac-	4B\	I	4d\	-ti ac-	4d\	I	4G/	-ti ac-	.	.	4dd\	I	4b\	-ti ac-
4E\	noſ-	2.C/	-cẽ(n)-	4e\	noſ-	2.c\	-cen-	4.g\	noſ-	2G/	-cen-	.	.	4.ee\	noſ-	2cc\	-cẽ(n)-
4C/	-tri	.	.	4e\	-tri	.	.	.	.	.	.	.	.	.	.	.	.
.	.	.	.	.	.	.	.	8g\	-tri	.	.	.	.	8dd\	-tri	.	.
=14-	=14-	=14-	=14-	=14-	=14-	=14-	=14-	=14-	=14-	=14-	=14-	=14-	=14-	=14-	=14-	=14-	=14-
4E\	pet-	.	.	4e\	pet-	.	.	4g\	pet-	2G/	-de	1r	.	4cc\	pet-	2g/	-de
4G\	-ti ac-	4GG/	-de	4d\	-ti ac-	4d\	-de	4g\	-ti ac-	.	.	.	.	4b\	-ti ac-	.	.
2D/	-cen-	2r	.	2d\	-cen-	2r	.	2f#X\	-cen-	2r	.	.	.	2a\	-cen-	2r	.
*custos:GG	*	*	*	*custos:d	*	*	*	*	*	*	*	*	*	*	*	*	*
!LO:LB:g=original	!	!	!	!LO:LB:g=original	!	!	!	!	!	!	!	!	!	!	!	!	!
1GG	-de	1r	.	1d	-de	1r	.	1g	-de	1r	.	4dd\	Stra-	1b	-de	1r	.
.	.	.	.	.	.	.	.	.	.	.	.	4dd\	-ua-	.	.	.	.
.	.	.	.	.	.	.	.	.	.	.	.	2dd\	-gan-	.	.	.	.
*	*	*	*	*	*	*	*	*	*Xij	*	*	*	*	*custos:b	*	*	*
!	!	!	!	!	!	!	!	!	!	!	!	!	!	!LO:LB:g=original	!	!	!
=15-	=15-	=15-	=15-	=15-	=15-	=15-	=15-	=15-	=15-	=15-	=15-	=15-	=15-	=15-	=15-	=15-	=15-
00r	.	1G	Ma	00r	.	1B	Ma	00r	.	1.d	Ma	4.b\	-za	00r	.	1g	Ma
.	.	.	.	.	.	.	.	.	.	.	.	8cc\	d`A-	.	.	.	.
.	.	.	.	.	.	.	.	.	.	.	.	2dd\	-mo-	.	.	.	.
.	.	1G	l`al-	.	.	1d	l`al-	.	.	.	.	1g	-re	.	.	1b	l`al-
.	.	.	.	.	.	.	.	.	.	1g\	l`al-	.	.	.	.	.	.
*	*	*custos:D	*	*	*	*	*	*	*	*	*	*	*	*	*	*	*
!	!	!LO:LB:g=original	!	!	!	!	!	!	!	!	!	!	!	!	!	!	!
=16-	=16-	=16-	=16-	=16-	=16-	=16-	=16-	=16-	=16-	=16-	=16-	=16-	=16-	=16-	=16-	=16-	=16-
.	.	1D	-ma	.	.	1d	-ma	.	.	.	.	0r	.	.	.	1a	-ma
.	.	.	.	.	.	.	.	.	.	2f\	-ma	.	.	.	.	.	.
*	*	*	*	*	*	*custos:B	*	*	*	*	*	*	*	*	*	*	*
!	!	!	!	!	!	!LO:LB:g=original	!	!	!	!	!	!	!	!	!	!	!
.	.	2.E\	dẽ(n)-	.	.	2.B\	dẽ(n)-	.	.	2.e\	den-	.	.	.	.	2.g#X/	den-
.	.	4E\	-tro a	.	.	4B\	-tr` a	.	.	4e\	-tro a	.	.	.	.	4g#/	-tro a
=17-	=17-	=17-	=17-	=17-	=17-	=17-	=17-	=17-	=17-	=17-	=17-	=17-	=17-	=17-	=17-	=17-	=17-
00r	.	2E\	le	00r	.	2B\	le	00r	.	2.e\	le	0r	.	00r	.	2g#yX/	le
.	.	2A\	grã(n)	.	.	2c\	gran	.	.	.	.	.	.	.	.	2a\	gran
.	.	.	.	.	.	.	.	.	.	4f\	grã(n)	.	.	.	.	.	.
.	.	2G\	fiã(m)-	.	.	8d\	fiam-	.	.	1g	fiam-	.	.	.	.	8b\	fiam-
.	.	.	.	.	.	8c\	.	.	.	.	.	.	.	.	.	8cc\	.
.	.	.	.	.	.	8B\	.	.	.	.	.	.	.	.	.	8dd\	.
.	.	.	.	.	.	8A\	.	.	.	.	.	.	.	.	.	8cc\	.
.	.	2GG/	-me	.	.	8B\	.	.	.	.	.	.	.	.	.	8b\	.
.	.	.	.	.	.	8c\	.	.	.	.	.	.	.	.	.	8a\	.
.	.	.	.	.	.	8d\	.	.	.	.	.	.	.	.	.	8gny\	.
.	.	.	.	.	.	8B\	.	.	.	.	.	.	.	.	.	8fny/	.
=18-	=18-	=18-	=18-	=18-	=18-	=18-	=18-	=18-	=18-	=18-	=18-	=18-	=18-	=18-	=18-	=18-	=18-
.	.	2.C/	vi-	.	.	4c\	.	.	.	1g	-me	1r	.	.	.	4e/	.
.	.	.	.	.	.	4e\	-me	.	.	.	.	.	.	.	.	4cc\	-me
*	*	*	*	*	*	*	*	*	*	*	*	*	*	*	*	*custos:cc	*
!	!	!	!	!	!	!	!	!	!	!	!	!	!	!	!	!LO:LB:g=original	!
.	.	.	.	.	.	4e\	vi-	.	.	.	.	.	.	.	.	4cc\	vi-
.	.	4D/	.	.	.	8d\	.	.	.	.	.	.	.	.	.	8b\	.
.	.	.	.	.	.	8c\	.	.	.	.	.	.	.	.	.	8a\	.
*	*	*	*	*	*	*	*	*	*	*	*	*custos:ee	*	*	*	*	*
!	!	!	!	!	!	!	!	!	!	!	!	!LO:LB:g=original	!	!	!	!	!
.	.	1E	.	.	.	1B	.	.	.	1e	vi-	4ee\	Stra-	.	.	4g#X/	.
.	.	.	.	.	.	.	.	.	.	.	.	4ee\	-ua-	.	.	2a\	.
.	.	.	.	.	.	.	.	.	.	.	.	2ee\	-gan-	.	.	.	.
.	.	.	.	.	.	.	.	.	.	.	.	.	.	.	.	4g#X/	.
=19-	=19-	=19-	=19-	=19-	=19-	=19-	=19-	=19-	=19-	=19-	=19-	=19-	=19-	=19-	=19-	=19-	=19-
0r	.	2AA/	-ue	0r	.	2A/	-ue	0r	.	2e\	-ue	4.cc\	-za	0r	.	1a	-ue
.	.	.	.	.	.	.	.	.	.	.	.	8dd\	d`A-	.	.	.	.
.	.	2A\	Non	.	.	2c\	Non	.	.	4r	.	2ee\	-mo-	.	.	.	.
.	.	.	.	.	.	.	.	.	.	4e\	Non	.	.	.	.	.	.
.	.	2.A\	sfa-	.	.	2.c\	sfa-	.	.	4f\	sfa-	1a	-re	.	.	2r	.
.	.	.	.	.	.	.	.	.	.	4e\	.	.	.	.	.	.	.
*	*	*	*	*	*	*	*	*	*	*custos:e	*	*	*	*	*	*	*
!	!	!	!	!	!	!	!	!	!	!LO:LB:g=original	!	!	!	!	!	!	!
.	.	.	.	.	.	.	.	.	.	2.e\	.	.	.	.	.	2a\	Non
.	.	4G\	.	.	.	4B\	.	.	.	.	.	.	.	.	.	.	.
=20-	=20-	=20-	=20-	=20-	=20-	=20-	=20-	=20-	=20-	=20-	=20-	=20-	=20-	=20-	=20-	=20-	=20-
1r	.	1F	.	1r	.	1A	.	1r	.	.	.	00r	.	1r	.	1a	sfa-
.	.	.	.	.	.	.	.	.	.	8d\	.	.	.	.	.	.	.
.	.	.	.	.	.	.	.	.	.	8c\	.	.	.	.	.	.	.
.	.	.	.	.	.	.	.	.	.	2d\	.	.	.	.	.	.	.
*	*	*	*	*	*	*	*	*custos:e	*	*	*	*	*	*	*	*	*
!	!	!	!	!	!	!	!	!LO:LB:g=original	!	!	!	!	!	!	!	!	!
2r	.	1E	-ce	2r	.	2B\	-ce	2r	.	1e	-ce	.	.	2r	.	1g#X	-ce
4E\	an-	.	.	4B\	an-	2r	.	4e\	an-	.	.	.	.	4b\	an-	.	.
8E\	-zi	.	.	8B\	-zi	.	.	8e\	-zi	.	.	.	.	8b\	-zi	.	.
8E\	di	.	.	8B\	di	.	.	8e\	di	.	.	.	.	8b\	di	.	.
=21-	=21-	=21-	=21-	=21-	=21-	=21-	=21-	=21-	=21-	=21-	=21-	=21-	=21-	=21-	=21-	=21-	=21-
2A\	lor	4AA/	an-	2A/	lor	4A/	an-	2e\	lor	4e\	an-	.	.	2cc#X\	lor	4a\	an-
.	.	8AA/	-zi	.	.	8A/	-zi	.	.	8e\	-zi	.	.	.	.	8a\	-zi
.	.	8AA/	di	.	.	8A/	di	.	.	8e\	di	.	.	.	.	8a\	di
*	*	*	*	*	*	*custos:A	*	*	*	*	*	*	*	*	*	*	*
!	!	!	!	!	!	!LO:LB:g=original	!	!	!	!	!	!	!	!	!	!	!
4D/	an-	2D/	lor	4A/	an-	2A/	lor	4f#X\	an-	2d\	lor	.	.	4dd\	an-	2a\	lor
8D/	-zi	.	.	8d\	-zi	.	.	8f#\	-zi	.	.	.	.	8dd\	-zi	.	.
8D/	di	.	.	8d\	di	.	.	8f#\	di	.	.	.	.	8dd\	di	.	.
2G\	lor	4GG/	an-	2B\	lor	4G/	an-	2g\	lor	4d\	an-	.	.	2dd\	lor	4b\	an-
.	.	8GG/	-zi	.	.	8G/	-zi	.	.	8d\	-zi	.	.	.	.	8b\	-zi
.	.	8GG/	di	.	.	8G/	di	.	.	8d\	di	.	.	.	.	8b\	di
2C/	ſi	2C/	lor	2c\	ſi	2G/	lor	2e\	ſi	2c/	lor	.	.	2ee\	ſi	2gny/	lor
*	*	*custos:D	*	*	*	*	*	*	*	*	*	*	*	*	*	*	*
!	!	!LO:LB:g=original	!	!	!	!	!	!	!	!	!	!	!	!	!	!	!
=22-	=22-	=22-	=22-	=22-	=22-	=22-	=22-	=22-	=22-	=22-	=22-	=22-	=22-	=22-	=22-	=22-	=22-
1.F	nut-	00r	.	1.c	nut-	00r	.	1fny	nut-	00r	.	00r	.	1.a	nut-	00r	.
.	.	.	.	.	.	.	.	2f\	-re e	.	.	.	.	.	.	.	.
2G\	-re e	.	.	2B\	-re e	.	.	1d\	vi-	.	.	.	.	2g/	-re e	.	.
=23-	=23-	=23-	=23-	=23-	=23-	=23-	=23-	=23-	=23-	=23-	=23-	=23-	=23-	=23-	=23-	=23-	=23-
0E	vi-	.	.	4B\	vi-	.	.	.	.	.	.	.	.	0g	vi-	.	.
.	.	.	.	4A/	.	.	.	.	.	.	.	.	.	.	.	.	.
.	.	.	.	4G/	.	.	.	4c/	.	.	.	.	.	.	.	.	.
.	.	.	.	4F#X/	.	.	.	4B/	.	.	.	.	.	.	.	.	.
.	.	.	.	1G	.	.	.	1c#X	.	.	.	.	.	.	.	.	.
=24-	=24-	=24-	=24-	=24-	=24-	=24-	=24-	=24-	=24-	=24-	=24-	=24-	=24-	=24-	=24-	=24-	=24-
1D	-ue	2r	.	1A	-ue	2r	.	1d	-ue	2r	.	00r	.	1f#X	-ue	2r	.
.	.	4D/	an-	.	.	4A/	an-	.	.	4d\	an-	.	.	.	.	4a\	an-
.	.	8D/	-zi	.	.	8A/	-zi	.	.	8d\	-zi	.	.	.	.	8a\	-zi
.	.	8D/	di	.	.	8d\	di	.	.	8d\	di	.	.	.	.	8a\	di
*	*	*	*	*	*	*	*	*	*	*	*	*	*	*	*	*custos:b	*
!	!	!	!	!	!	!	!	!	!	!	!	!	!	!	!	!LO:LB:g=original	!
4GG/	an-	2G\	lor	4G/	an-	2d\	lor	4d\	an-	2B/	lor	.	.	4g/	an-	2b\	lor
8GG/	-zi	.	.	8G/	-zi	.	.	8d\	-zi	.	.	.	.	8g/	-zi	.	.
8GG/	di	.	.	8G/	di	.	.	8d\	di	.	.	.	.	8g/	di	.	.
!	!	!	!	!LO:SIC:v:t=custos B	!	!	!	!	!	!	!	!	!	!	!	!	!
2C/	lor	2C/	ſi	2G/	lor	2e\	ſi	2cny/	lor	2g\	ſi	.	.	2g/	lor	2cc\	ſi
*	*	*	*	*custos:B	*	*	*	*	*	*	*	*	*	*	*	*	*
!	!	!	!	!LO:LB:g=original	!	!	!	!	!	!	!	!	!	!	!	!	!
=25-	=25-	=25-	=25-	=25-	=25-	=25-	=25-	=25-	=25-	=25-	=25-	=25-	=25-	=25-	=25-	=25-	=25-
00r	.	1.F	nut-	00r	.	1.c	nut-	0r	.	1f	nu-	.	.	00r	.	1.a	nut-
*	*	*	*	*	*	*	*	*	*	*custos:f	*	*	*	*	*	*	*
!	!	!	!	!	!	!	!	!	!	!LO:LB:g=original	!	!	!	!	!	!	!
.	.	.	.	.	.	.	.	.	.	2f\	-tre	.	.	.	.	.	.
.	.	2G\	-re e	.	.	2B\	-re e	.	.	1d\	e -	.	.	.	.	2g/	-re e
=26-	=26-	=26-	=26-	=26-	=26-	=26-	=26-	=26-	=26-	=26-	=26-	=26-	=26-	=26-	=26-	=26-	=26-
.	.	0E	vi-	.	.	4B\	vi-	00r	.	.	.	0r	.	.	.	0g	vi-
.	.	.	.	.	.	4A/	.	.	.	.	.	.	.	.	.	.	.
.	.	.	.	.	.	4G/	.	.	.	4c/	-vi-	.	.	.	.	.	.
.	.	.	.	.	.	4F#X/	.	.	.	4B/	.	.	.	.	.	.	.
.	.	.	.	.	.	1G	.	.	.	1c#X	.	.	.	.	.	.	.
=27-	=27-	=27-	=27-	=27-	=27-	=27-	=27-	=27-	=27-	=27-	=27-	=27-	=27-	=27-	=27-	=27-	=27-
0r	.	1D	-ue	0r	.	1A	-ue	.	.	1d	-ue	1r	.	0r	.	1f#X	-ue
.	.	4G\	Stra-	.	.	4B\	Stra-	.	.	4d\	Stra-	4dd\	Stra-	.	.	4g/	Stra-
.	.	4G\	-ua-	.	.	4B\	-ua-	.	.	4d\	-ua-	4dd\	-ua-	.	.	4g/	-ua-
.	.	2G\	-gan-	.	.	2B\	-gã(n)-	.	.	2d\	-gan-	2dd\	-gan-	.	.	2g/	-gan-
=28-	=28-	=28-	=28-	=28-	=28-	=28-	=28-	=28-	=28-	=28-	=28-	=28-	=28-	=28-	=28-	=28-	=28-
4G\	Stra-	2GG/	-za	4B\	Stra-	2G/	-za	4d\	Stra-	2d\	-za	4.b\	-za	4dd\	Stra-	2g/	-za
4G\	-ua-	.	.	4B\	-ua-	.	.	4d\	-ua-	.	.	.	.	4dd\	-ua-	.	.
.	.	.	.	.	.	.	.	.	.	.	.	8cc\	d A-	.	.	.	.
*custos:G	*	*	*	*	*	*	*	*	*	*	*	*	*	*	*	*	*
!LO:LB:g=original	!	!	!	!	!	!	!	!	!	!	!	!	!	!	!	!	!
2G\	-gan-	4G\	Stra-	2B\	-gan-	4G/	Stra-	2d\	-gã(n)-	4g\	Stra-	2dd\	-mo-	2dd\	-gan-	4b\	Stra-
.	.	4G\	-ua-	.	.	4B\	-ua-	.	.	4g\	-ua-	.	.	.	.	4b\	-ua-
*	*	*	*	*	*	*custos:B	*	*custos:d	*	*	*	*	*	*custos:b	*	*	*
!	!	!	!	!	!	!LO:LB:g=original	!	!LO:LB:g=original	!	!	!	!	!	!LO:LB:g=original	!	!	!
2GG/	-za	2G\	-gan-	2G/	-za	2B\	-gan-	2d\	-za	2g\	-gan-	1g	-re	2b\	-za	2dd\	-gan-
4G\	Stra-	2GG/	-za	4B\	Stra-	2G/	-za	4g\	Stra-	2d\	-za	.	.	4dd\	Stra-	2b\	-za
4G\	-ua-	.	.	4B\	-ua-	.	.	4g\	-ua-	.	.	.	.	4dd\	-ua-	.	.
=29-	=29-	=29-	=29-	=29-	=29-	=29-	=29-	=29-	=29-	=29-	=29-	=29-	=29-	=29-	=29-	=29-	=29-
2G\	-gan-	4G\	Stra-	2B\	-gan-	4B\	Stra-	2g\	-gan-	4d\	Stra-	0r	.	2dd\	-gan-	4b\	Stra-
.	.	4G\	-ua-	.	.	4B\	-ua-	.	.	4d\	-ua-	.	.	.	.	4b\	-ua-
2GG/	-za	2G\	-gan-	2G/	-za	2B\	-gã(n)-	2d\	-za	2g\	-gan-	.	.	2b\	-za	2dd\	-gan-
4G\	Stra-	4.E\	-za	4.G/	Stra-	4B\	-za	4g\	Stra-	4G/	-za	.	.	4g/	Stra-	4ee\	-za
4G\	-ua-	.	.	.	.	4G/	d`A-	4e\	-ua-	4G/	d`A-	.	.	4g/	-ua-	4cc\	d`A-
.	.	8F\	d`A-	8A/	-ua-	.	.	.	.	.	.	.	.	.	.	.	.
*	*	*custos:G	*	*	*	*	*	*	*	*custos:d	*	*	*	*	*	*	*
!	!	!LO:LB:g=original	!	!	!	!	!	!	!	!LO:LB:g=original	!	!	!	!	!	!	!
2G\	-gan-	2G\	-mo-	2B\	-gan-	2G/	-mo-	2d\	-gã(n)-	2d\	-mo-	.	.	2g/	-gan-	2b\	-mo-
=30-	=30-	=30-	=30-	=30-	=30-	=30-	=30-	=30-	=30-	=30-	=30-	=30-	=30-	=30-	=30-	=30-	=30-
4.E\	-za	2C/	-re	4G/	-za	2G/	-re	4e\	-za	2cny/	-re	4g/	Stra-	4g/	-za	2cc\	-re
.	.	.	.	4G/	d`A-	.	.	4g\	d`A-	.	.	4g/	-ua-	4ccny\	d`A-	.	.
8F\	d`A-	.	.	.	.	.	.	.	.	.	.	.	.	.	.	.	.
2G\	-mo-	2r	.	2d\	-mo-	2r	.	1g	-mo-	2r	.	2g/	-gan-	2b\	-mo-	2r	.
*	*	*	*	*	*	*	*	*	*	*	*	*custos:e	*	*	*	*custos:g	*
!	!	!	!	!	!	!	!	!	!	!	!	!LO:LB:g=original	!	!	!	!LO:LB:g=original	!
2C/	-re	4c\	Stra-	1c	-re	4C/	Stra-	.	.	4e\	Stra-	4.e/	-za	1cc	-re	4g/	Stra-
.	.	4c\	-ua-	.	.	4C/	-ua-	.	.	4e\	-ua-	.	.	.	.	4g/	-ua-
.	.	.	.	.	.	.	.	.	.	.	.	8f/	d A-	.	.	.	.
2r	.	2c\	-gan-	.	.	2C/	-gan-	2e\	-re	2e\	-gan-	2g/	-mo-	.	.	2cc\	-gan-
=31-	=31-	=31-	=31-	=31-	=31-	=31-	=31-	=31-	=31-	=31-	=31-	=31-	=31-	=31-	=31-	=31-	=31-
4c\	Stra-	4.A\	-za	4c\	Stra-	4Fny/	-za	4r	.	4f\	-za	1c	-re	4cc\	Stra-	4cc\	-za
4c\	-ua-	.	.	4Fny/	-ua-	4F/	d`A-	4.c/	Stra-	4f\	d`A-	.	.	4cc\	-ua-	4a\	d`A-
.	.	8B\	d`A-	.	.	.	.	.	.	.	.	.	.	.	.	.	.
2c\	-gan-	2c\	-mo-	2c\	-gan-	2C/	-mo-	.	.	2e\	-mo-	.	.	2cc\	-gan-	2g/	-mo-
.	.	.	.	.	.	.	.	8d\	-ua-	.	.	.	.	.	.	.	.
.	.	.	.	.	.	.	.	4e\	-gan-	.	.	.	.	.	.	.	.
4.A\	-za	2F\	-re	4c\	-za	2c\	-re	4c/	-za	2f\	-re	1r	.	4cc\	-za	2a\	-re
.	.	.	.	4F/	d`A-	.	.	4f\	d`A-	.	.	.	.	4a\	d`A-	.	.
8B\	d`A-	.	.	.	.	.	.	.	.	.	.	.	.	.	.	.	.
2c\	-mo-	2r	.	2C/	-mo-	2r	.	2e\	-mo-	2r	.	.	.	2g/	-mo-	2r	.
*	*	*	*	*custos:c	*	*	*ij	*	*	*	*	*	*	*	*	*	*
!	!	!	!	!LO:LB:g=original	!	!	!	!	!	!	!	!	!	!	!	!	!
=32-	=32-	=32-	=32-	=32-	=32-	=32-	=32-	=32-	=32-	=32-	=32-	=32-	=32-	=32-	=32-	=32-	=32-
1F	-re	4A\	Stra-	1c	-re	4F/	Stra-	1f	-re	4c/	Stra-	1r	.	1a	-re	4cc\	Stra-
.	.	4A\	-ua-	.	.	4F/	-ua-	.	.	4c/	-ua-	.	.	.	.	4cc\	-ua-
.	.	2A\	-gan-	.	.	2F/	-gan-	.	.	2c/	-gan-	.	.	.	.	2cc\	-gan-
1r	.	4.F\	-za	1r	.	4A/	-za	1r	.	4f\	-za	4a\	Stra-	1r	.	4a\	-za
.	.	.	.	.	.	4A/	d`A-	.	.	4f\	d`A-	4a\	-ua-	.	.	4dd\	d`A-
.	.	8G\	d`A-	.	.	.	.	.	.	.	.	.	.	.	.	.	.
.	.	2A\	-mo-	.	.	2A/	-mo-	.	.	2e\	-mo-	2a\	-gan-	.	.	2cc#X\	-mo-
*custos:D	*	*	*	*	*	*	*	*	*	*	*	*	*	*	*	*	*
!LO:LB:g=original	!	!	!	!	!	!	!	!	!	!	!	!	!	!	!	!	!
=33-	=33-	=33-	=33-	=33-	=33-	=33-	=33-	=33-	=33-	=33-	=33-	=33-	=33-	=33-	=33-	=33-	=33-
*	*	*	*	*	*	*	*	*	*ij	*	*	*	*	*	*	*	*
4D/	Stra-	1D	-re	4A/	Stra-	1A	-re	4d\	Stra-	1d	-re	4.f/	-za	4a\	Stra-	1dd	-re
4D/	-ua-	.	.	4A/	-ua-	.	.	4d\	-ua-	.	.	.	.	4a\	-ua-	.	.
.	.	.	.	.	.	.	.	.	.	.	.	8g/	d`A-	.	.	.	.
2D/	-gan-	.	.	2d\	-gan-	.	.	2A/	-gan-	.	.	2a\	-mo-	2f#X/	-gan-	.	.
*	*	*	*	*	*	*	*Xij	*custos:B	*	*	*	*	*	*custos:g	*	*	*
!	!	!	!	!	!	!	!	!LO:LB:g=original	!	!	!	!	!	!LO:LB:g=original	!	!	!
4.BB/	-za	1r	.	4d\	-za	1r	.	4B/	-za	1r	.	1d	-re	4g/	-za	1r	.
.	.	.	.	4B\	d`A-	.	.	4d\	d`A-	.	.	.	.	4g/	d`A-	.	.
8C/	d`A-	.	.	.	.	.	.	.	.	.	.	.	.	.	.	.	.
2D/	-mo-	.	.	2A/	-mo-	.	.	2d\	-mo-	.	.	.	.	2f#X/	-mo-	.	.
=34-	=34-	=34-	=34-	=34-	=34-	=34-	=34-	=34-	=34-	=34-	=34-	=34-	=34-	=34-	=34-	=34-	=34-
0GG	-re	0r	.	0G	-re	0r	.	0B	-re	0r	.	4dd\	Stra-	0g	-re	0r	.
.	.	.	.	.	.	.	.	.	.	.	.	4dd\	-ua-	.	.	.	.
.	.	.	.	.	.	.	.	.	.	.	.	2dd\	-gan-	.	.	.	.
.	.	.	.	.	.	.	.	.	.	.	.	4.b\	-za	.	.	.	.
.	.	.	.	.	.	.	.	.	.	.	.	8cc\	d`A-	.	.	.	.
.	.	.	.	.	.	.	.	.	.	.	.	2dd\	-mo-	.	.	.	.
*	*	*	*	*	*	*	*	*	*Xij	*	*	*custos:g	*	*	*	*	*
!	!	!	!	!	!	!	!	!	!	!	!	!LO:LB:g=original	!	!	!	!	!
=35-	=35-	=35-	=35-	=35-	=35-	=35-	=35-	=35-	=35-	=35-	=35-	=35-	=35-	=35-	=35-	=35-	=35-
!	!	!	!	!	!	!	!	!	!	!	!	!	!	!	!	!LO:TX:t=P:problem:brakująca pauza?	!
0C	Ch`ar-	1r	.	0G	Ch`ar-	1r	.	0c	Ch`ar-	1r	.	2g/	-re	0e	Ch`ar-	1ryy	.
.	.	.	.	.	.	.	.	.	.	.	.	4g/	Stra-	.	.	.	.
.	.	.	.	.	.	.	.	.	.	.	.	4g/	-ua-	.	.	.	.
.	.	0C	Ch`ar-	.	.	0c	Ch`ar-	.	.	0e	Ch`ar-	2g/	-gan-	.	.	0g	Ch`ar-
.	.	.	.	.	.	.	.	.	.	.	.	4.e/	-za	.	.	.	.
.	.	.	.	.	.	.	.	.	.	.	.	8f/	d`A-	.	.	.	.
*	*	*	*	*	*	*custos:G	*	*	*	*	*	*	*	*	*	*	*
!	!	!	!	!	!	!LO:LB:g=original	!	!	!	!	!	!	!	!	!	!	!
=36-	=36-	=36-	=36-	=36-	=36-	=36-	=36-	=36-	=36-	=36-	=36-	=36-	=36-	=36-	=36-	=36-	=36-
1C	-d`in	.	.	1G	-d`in	.	.	1c	-d`in	.	.	2g/	-mo-	1e	-d`in	.	.
.	.	.	.	.	.	.	.	.	.	.	.	2c/	-re	.	.	.	.
1C	e-	2C/	-d`in	1G	e-	2G/	-d`in	1e	e-	2c/	-d`in	4cc\	Stra-	1g	e-	2g/	-d`in
.	.	.	.	.	.	.	.	.	.	.	.	4cc\	-ua-	.	.	.	.
!	!	!	!	!	!	!	!	!	!	!L	!	!	!	!	!	!	!
.	.	2C/	e-	.	.	2E/	e-	.	.	2e\	e-	2cc\	-gan-	.	.	2ccny\	e-
*	*	*	*	*	*	*	*	*	*	*custos:f	*	*	*	*	*	*	*
!	!	!	!	!	!	!	!	!	!	!LO:PB:g=original	!	!	!	!	!	!	!
=37-	=37-	=37-	=37-	=37-	=37-	=37-	=37-	=37-	=37-	=37-	=37-	=37-	=37-	=37-	=37-	=37-	=37-
0FF	-ter-	0F	-ter-	0F	-ter-	2.A/	-ter-	0c	-ter-	0f	-ter-	4.a\	-za	0a	-ter-	0cc	-ter-
.	.	.	.	.	.	.	.	.	.	.	.	8b\	d A-	.	.	.	.
.	.	.	.	.	.	.	.	.	.	.	.	2cc\	-mo-	.	.	.	.
.	.	.	.	.	.	4B\	.	.	.	.	.	.	.	.	.	.	.
.	.	.	.	.	.	1c	.	.	.	.	.	1f	-re	.	.	.	.
=38-	=38-	=38-	=38-	=38-	=38-	=38-	=38-	=38-	=38-	=38-	=38-	=38-	=38-	=38-	=38-	=38-	=38-
2C/	-no	1C	-no e	2G/	-no	1c	-no e	2e\	-no	1e	-no e	00r	.	2g/	-no	1cc	-no e
4r	.	.	.	4r	.	.	.	4r	.	.	.	.	.	4r	.	.	.
4C/	e	.	.	4E/	e	.	.	4e\	e	.	.	.	.	4g/	e	.	.
*	*	*custos:G	*	*	*	*	*	*	*	*	*	*	*	*	*	*	*
!	!	!LO:LB:g=original	!	!	!	!	!	!	!	!	!	!	!	!	!	!	!
4GG/	mai	2G\	mai	4B\	mai	2d\	mai	4d\	mai	2g\	mai	.	.	4b\	mai	2b\	mai
4AA/	nõ(n)	.	.	4A/	nõ(n)	.	.	4c/	nõ(n)	.	.	.	.	4cc\	nõ(n)	.	.
*	*	*	*	*	*	*	*	*	*	*	*	*	*	*	*	*custos:dd	*
!	!	!	!	!	!	!	!	!	!	!	!	!	!	!	!	!LO:PB:g=original	!
4BB/	ſtrug-	4r	.	4G/	ſtrug-	4r	.	4B/	ſtrug-	4r	.	.	.	4dd\	ſtrug-	4r	.
4GG/	-ga	4G\	e	4G/	-g` un	4G/	e	4d\	-g`un	4g\	e	.	.	4b\	-ga un	4dd\	e
=39-	=39-	=39-	=39-	=39-	=39-	=39-	=39-	=39-	=39-	=39-	=39-	=39-	=39-	=39-	=39-	=39-	=39-
2C/	co-	4C/	mai	2G/	co-	4E/	mai	2c/	co-	4g\	mai	.	.	2cc\	co-	4ee\	mai
.	.	4D/	nõ(n)	.	.	4F/	nõ(n)	.	.	4f\	nõ(n)	.	.	.	.	4dd\	nõ(n)
4C/	-re	4E\	ſtrug-	4G/	-re	4G/	ſtrug-	4c/	-re	4e\	ſtrug-	.	.	4g/	-re	4cc\	ſtrug-
*	*	*	*	*	*	*	*	*	*ij	*	*	*	*	*	*	*	*
4C/	e	4C/	-ga un	4G/	e	4G/	-g`ũ(n)	4c/	e	4g\	-ga un	.	.	4g/	e	4ee\	-ga un
4GG/	mai	2G\	co-	2G/	mai	2G/	co-	4B/	mai	2g\	co-	.	.	4b\	mai	2dd\	co-
4AA/	nõ(n)	.	.	.	.	.	.	4A/	nõ(n)	.	.	.	.	4cc\	nõ(n)	.	.
*custos:BB	*	*	*	*	*	*	*	*	*	*	*	*	*	*	*	*	*
!LO:LB:g=original	!	!	!	!	!	!	!	!	!	!	!	!	!	!	!	!	!
4BB/	ſtrug-	4GG/	-re	2G/	non	4G/	-re	4G/	ſtrug-	4d\	-re	.	.	4dd\	ſtrug-	4b\	-re
4GG/	-ga un	4G\	e	.	.	4G/	e	4d\	-g`un	4g\	e	.	.	4b\	-g`un	4dd\	e
*	*	*	*	*custos:G	*	*	*	*custos:d	*	*	*	*	*	*custos:cc	*	*	*
!	!	!	!	!LO:LB:g=original	!	!	!	!LO:LB:g=original	!	!	!	!	!	!LO:LB:g=original	!	!	!
=40-	=40-	=40-	=40-	=40-	=40-	=40-	=40-	=40-	=40-	=40-	=40-	=40-	=40-	=40-	=40-	=40-	=40-
2C/	co-	4C/	mai	1G	ſtrug-	4E/	mai	2c/	co-	4g\	mai	00r	.	2cc\	co-	4ee\	mai
.	.	4D/	nõ(n)	.	.	4F/	nõ(n)	.	.	4f\	nõ(n)	.	.	.	.	4dd\	nõ(n)
4C/	-re	4E\	ſtrug-	.	.	4G/	ſtrug-	4c/	-re	4e\	ſtrug-	.	.	4g/	-re	4cc\	ſtrug-
*	*ij	*	*	*	*	*	*	*	*Xij	*	*	*	*	*	*ij	*	*
4C/	e	4C/	-g`un	.	.	4c\	-g`ũ(n)	4c/	e	4g\	-g`un	.	.	4g/	e	4ee\	-ga un
4GG/	mai	1G	co-	1G	-ga un	1B	co-	4d\	mai	1.g	co-	.	.	4b\	mai	1dd	co-
4AA/	nõ(n)	.	.	.	.	.	.	4c/	nõ(n)	.	.	.	.	4cc\	nõ(n)	.	.
4BB/	ſtrug-	.	.	.	.	.	.	4B/	ſtrug-	.	.	.	.	4dd\	ſtrug-	.	.
4GG/	-ga un	.	.	.	.	.	.	4d\	-g`ũ(n)	.	.	.	.	4b\	-g`un	.	.
=41-	=41-	=41-	=41-	=41-	=41-	=41-	=41-	=41-	=41-	=41-	=41-	=41-	=41-	=41-	=41-	=41-	=41-
0D	co-	0D	-re	0A	co-	0d	-re	0d	co-	.	.	.	.	0a	co-	0dd	-re
.	.	.	.	.	.	.	.	.	.	4f#X\	.	.	.	.	.	.	.
.	.	.	.	.	.	.	.	.	.	4e\	.	.	.	.	.	.	.
.	.	.	.	.	.	.	.	.	.	1f#X	-re	.	.	.	.	.	.
*	*	*	*	*	*	*	*	*	*	*custos:g	*	*	*	*	*	*	*
!	!	!	!	!	!	!	!	!	!	!LO:LB:g=original	!	!	!	!	!	!	!
=42-	=42-	=42-	=42-	=42-	=42-	=42-	=42-	=42-	=42-	=42-	=42-	=42-	=42-	=42-	=42-	=42-	=42-
1GG	re	4G\	Stra-	1G	-re	4d\	Stra-	1d	-re	4g\	Stra-	4dd\	Stra-	1b	-re	4b\	Stra-
.	.	4G\	-ua-	.	.	4d\	-ua-	.	.	4g\	-ua-	4dd\	-ua-	.	.	4b\	-ua-
!	!	!	!	!	!	!	!	!	!	!	!	!LO:TX:t=P:problem:błędny custos	!	!	!	!	!
.	.	2G\	-gan-	.	.	2B\	-gan-	.	.	2d\	-gan-	2dd\	-gan-	.	.	2g/	-gan-
*	*Xij	*	*	*	*	*	*	*	*	*	*	*custos:dd	*	*	*Xij	*	*
!	!	!	!	!	!	!	!	!	!	!	!	!LO:PB:g=original	!	!	!	!	!
4G\	Stra-	2GG/	-za	4B\	Stra-	2B\	-za	4d\	Stra-	2d\	-za	4.b\	-za	4dd\	Stra-	2g/	-za
4G\	-ua-	.	.	4B\	-ua-	.	.	4d\	-ua-	.	.	.	.	4dd\	-ua-	.	.
.	.	.	.	.	.	.	.	.	.	.	.	8cc\	d`A-	.	.	.	.
*	*	*	*ij	*	*	*custos:G	*	*	*	*	*	*	*	*	*	*custos:b	*
!	!	!	!	!	!	!LO:LB:g=original	!	!	!	!	!	!	!	!	!	!LO:LB:g=original	!
2G\	-gan-	4G\	Stra-	2B\	-gan-	4G/	Stra-	2d\	-gan-	4g\	Stra-	2dd\	-mo-	2dd\	-gan-	4b\	Stra-
.	.	4G\	-ua-	.	.	4B\	-ua-	.	.	4g\	-ua-	.	.	.	.	4b\	-ua-
=43-	=43-	=43-	=43-	=43-	=43-	=43-	=43-	=43-	=43-	=43-	=43-	=43-	=43-	=43-	=43-	=43-	=43-
2GG/	-za	2G\	-gan-	2G/	-za	2B\	-gan-	2d\	-za	2g\	-gan-	1g	-re	2b\	-za	2dd\	-gan-
4G\	Stra-	2GG/	-za	4B\	Stra-	2G/	-za	4g\	Stra-	2d\	-za	.	.	4dd\	Stra-	2b\	-za
4G\	-ua-	.	.	4B\	-ua-	.	.	4g\	-ua-	.	.	.	.	4dd\	-ua-	.	.
*	*	*custos:G	*Xij	*	*	*	*	*	*	*	*	*	*	*	*	*	*
!	!	!LO:LB:g=original	!	!	!	!	!	!	!	!	!	!	!	!	!	!	!
2G\	-gan-	4G\	Stra-	2B\	-gan-	4B\	Stra-	2g\	-gan-	4d\	Stra-	1r	.	2dd\	-gan-	4b\	Stra-
.	.	4G\	-ua-	.	.	4B\	-ua-	.	.	4d\	-ua-	.	.	.	.	4b\	-ua-
2GG/	-za	2G\	-gan-	2G/	-za	2B\	-gã(n)-	2d\	-za	2g\	-gan-	.	.	2b\	-za	2dd\	-gan-
=44-	=44-	=44-	=44-	=44-	=44-	=44-	=44-	=44-	=44-	=44-	=44-	=44-	=44-	=44-	=44-	=44-	=44-
4G\	Stra-	4.E\	-za	4.G/	Stra-	4B\	-za	4g\	Stra-	4G/	-za	1r	.	4g/	Stra-	4ee\	-za
4G\	-ua-	.	.	.	.	4G/	d`A-	4e\	-ua-	4G/	d`A-	.	.	4g/	-ua-	4cc\	d`A-
.	.	8F\	d`A-	8A/	-ua-	.	.	.	.	.	.	.	.	.	.	.	.
2G\	-gã(n)-	2G\	-mo-	2B\	-gan-	2G/	-mo-	2d\	-gan-	2d\	-mo-	.	.	2g/	-gan-	2b\	-mo-
4.E\	-za	2C/	-re	4G/	-za	2G/	-re	4e\	-za	2c/	-re	4g/	Stra-	4g/	-za	2cc\	-re
.	.	.	.	4G/	d`A-	.	.	4g\	d`A-	.	.	4g/	-ua-	4cc\	d`A-	.	.
8F\	d`A-	.	.	.	.	.	.	.	.	.	.	.	.	.	.	.	.
*custos:G	*	*	*	*	*	*	*	*	*	*	*	*	*	*	*	*	*
!LO:LB:g=original	!	!	!	!	!	!	!	!	!	!	!	!	!	!	!	!	!
2G\	-mo-	2r	.	2d\	-mo-	2r	.	1g\	-mo-	2r	.	2g/	-gan-	2b\	-mo-	2r	.
*	*	*	*	*	*	*	*	*	*	*	*	*	*	*custos:cc	*	*	*
!	!	!	!	!	!	!	!	!	!	!	!	!	!	!LO:LB:g=original	!	!	!
=45-	=45-	=45-	=45-	=45-	=45-	=45-	=45-	=45-	=45-	=45-	=45-	=45-	=45-	=45-	=45-	=45-	=45-
2C/	-re	4c\	Stra-	1c	-re	4C/	Stra-	.	.	4e\	Stra-	4.e/	-za	1cc	-re	4g/	Stra-
.	.	4c\	-ua-	.	.	4C/	-ua-	.	.	4e\	-ua-	.	.	.	.	4g/	-ua-
.	.	.	.	.	.	.	.	.	.	.	.	8f/	d`A-	.	.	.	.
2r	.	2c\	-gan-	.	.	2C/	-gan-	2e\	-re	2e\	-gan-	2g/	-mo-	.	.	2cc\	-gan-
*	*	*	*	*custos:c	*	*	*	*custos:c	*	*	*	*	*	*	*	*	*
!	!	!	!	!LO:LB:g=original	!	!	!	!LO:LB:g=original	!	!	!	!	!	!	!	!	!
4c\	Stra-	4.A\	-za	4c\	Stra-	4F/	-za	4r	.	4fny\	-za	1c	-re	4cc\	Stra-	4cc\	-za
4c\	-ua-	.	.	4F/	-ua-	4F/	d`A-	4.c/	Stra-	4f\	d`A-	.	.	4cc\	-ua-	4a\	d`A-
.	.	8B\	d`A-	.	.	.	.	.	.	.	.	.	.	.	.	.	.
2c\	-gan-	2c\	-mo-	2c\	-gan-	2C/	-mo-	.	.	2e\	-mo-	.	.	2cc\	-gã(n)-	2g/	-mo-
.	.	.	.	.	.	.	.	8d\	-ua-	.	.	.	.	.	.	.	.
.	.	.	.	.	.	.	.	4e\	-gan-	.	.	.	.	.	.	.	.
=46-	=46-	=46-	=46-	=46-	=46-	=46-	=46-	=46-	=46-	=46-	=46-	=46-	=46-	=46-	=46-	=46-	=46-
4.A\	-za	2F\	-re	4c\	-za	2c\	-re	4c/	-za	2f\	-re	0r	.	4cc\	-za	2a\	-re
.	.	.	.	4F/	d`A-	.	.	4f\	d`A-	.	.	.	.	4a\	d`A-	.	.
8B\	d`A-	.	.	.	.	.	.	.	.	.	.	.	.	.	.	.	.
*	*	*	*	*	*	*	*	*	*	*custos:c	*	*	*	*	*	*	*
!	!	!	!	!	!	!	!	!	!	!LO:LB:g=original	!	!	!	!	!	!	!
2c\	-mo-	2r	.	2C/	-mo-	2r	.	2e\	-mo-	2r	.	.	.	2g/	-mo-	2r	.
*	*	*	*	*	*	*	*ij	*	*	*	*	*	*	*	*	*	*
1F	-re	4A\	Stra-	1c	-re	4F/	Stra-	1f	-re	4c/	Stra-	.	.	1a	-re	4cc\	Stra-
.	.	4A\	-ua-	.	.	4F/	-ua-	.	.	4c/	-ua-	.	.	.	.	4cc\	-ua-
*	*ij	*	*	*	*	*	*	*	*ij	*	*	*	*	*	*	*custos:cc	*
!	!	!	!	!	!	!	!	!	!	!	!	!	!	!	!	!LO:LB:g=original	!
.	.	2A\	-gan-	.	.	2F/	-gan-	.	.	2c/	-gan-	.	.	.	.	2cc\	-gan-
=47-	=47-	=47-	=47-	=47-	=47-	=47-	=47-	=47-	=47-	=47-	=47-	=47-	=47-	=47-	=47-	=47-	=47-
1r	.	4.F\	-za	1r	.	4A/	-za	1r	.	4f\	-za	4a\	Stra-	1r	.	4a\	-za
.	.	.	.	.	.	4A/	d`A-	.	.	4f\	d`A-	4a\	-ua-	.	.	4dd\	d`A-
.	.	8G\	d`A-	.	.	.	.	.	.	.	.	.	.	.	.	.	.
.	.	2A\	-mo-	.	.	2A/	-mo-	.	.	2e\	-mo-	2a\	-gan-	.	.	2cc#X\	-mo-
4D/	Stra-	1D	-re	4A/	Stra-	1A	-re	4d\	Stra-	1d	-re	4.f/	-za	4a\	Stra-	1dd	-re
4D/	-ua-	.	.	4A/	-ua-	.	.	4d\	-ua-	.	.	.	.	4a\	-ua-	.	.
.	.	.	.	.	.	.	.	.	.	.	.	8g/	d`A-	.	.	.	.
2D/	-gan-	.	.	2d\	-gan-	.	.	2A/	-gan-	.	.	2a\	-mo-	2f#X/	-gan-	.	.
*	*	*	*	*	*	*	*Xij	*	*	*	*	*	*	*	*	*	*
=48-	=48-	=48-	=48-	=48-	=48-	=48-	=48-	=48-	=48-	=48-	=48-	=48-	=48-	=48-	=48-	=48-	=48-
4.BB/	-za	1r	.	4d\	-za	1r	.	4B/	-za	1r	.	1d	-re	4g/	-za	1r	.
.	.	.	.	4B\	d`A-	.	.	4d\	d`A-	.	.	.	.	4g/	d`A-	.	.
8C/	d`A-	.	.	.	.	.	.	.	.	.	.	.	.	.	.	.	.
2D/	-mo-	.	.	2A/	-mo-	.	.	2d\	-mo-	.	.	.	.	2f#X/	-mo-	.	.
*	*	*	*	*	*	*	*	*	*	*	*	*custos:dd	*	*	*	*	*
!	!	!	!	!	!	!	!	!	!	!	!	!LO:LB:g=original	!	!	!	!	!
0GG	-re	0r	.	0G	-re	0r	.	0B	-re	0r	.	4dd\	Stra-	0g	-re	0r	.
.	.	.	.	.	.	.	.	.	.	.	.	4dd\	-ua-	.	.	.	.
.	.	.	.	.	.	.	.	.	.	.	.	2dd\	-gan-	.	.	.	.
*	*Xij	*	*	*	*	*	*	*	*Xij	*	*	*	*	*	*	*	*
=49-	=49-	=49-	=49-	=49-	=49-	=49-	=49-	=49-	=49-	=49-	=49-	=49-	=49-	=49-	=49-	=49-	=49-
.	.	.	.	.	.	.	.	.	.	.	.	4.b\	-za	.	.	.	.
.	.	.	.	.	.	.	.	.	.	.	.	8cc\	d`A-	.	.	.	.
.	.	.	.	.	.	.	.	.	.	.	.	2dd\	-mo-	.	.	.	.
!	!	!	!	!	!	!LO:TX:t=P:problem: VHV nie wyświetla pauzy	!	!	!	!	!	!	!	!	!	!	!
!	!	!	!	!	!	!	!	!	!	!LO:TX:t=P:problem: VHV nie wyświetla pauzy	!	!	!	!	!	!	!
0C	Ch`ar-	1r	.	0G	Ch`ar-	1r	.	0c	Ch`ar-	1r	.	2g/	-re	0e	Ch`ar-	1r	.
.	.	.	.	.	.	.	.	.	.	.	.	4g/	Stra-	.	.	.	.
.	.	.	.	.	.	.	.	.	.	.	.	4g/	-ua-	.	.	.	.
*	*	*	*	*	*	*custos:G	*	*	*	*	*	*	*	*	*	*	*
!	!	!	!	!	!	!LO:LB:g=original	!	!	!	!	!	!	!	!	!	!	!
=50-	=50-	=50-	=50-	=50-	=50-	=50-	=50-	=50-	=50-	=50-	=50-	=50-	=50-	=50-	=50-	=50-	=50-
.	.	0C	Ch`ar-	.	.	0c	Ch`ar-	.	.	0e	Ch`ar-	2g/	-gan-	.	.	0g	Ch`ar-
.	.	.	.	.	.	.	.	.	.	.	.	4.e/	-za	.	.	.	.
.	.	.	.	.	.	.	.	.	.	.	.	8f/	d`A-	.	.	.	.
1C	-da in	.	.	1G	-da in	.	.	1c	-da in	.	.	2g/	-mo-	1e	-da in	.	.
.	.	.	.	.	.	.	.	.	.	.	.	2c/	-re	.	.	.	.
*	*	*custos:C	*	*	*	*	*	*	*	*	*	*	*	*	*	*	*
!	!	!LO:LB:g=original	!	!	!	!	!	!	!	!	!	!	!	!	!	!	!
=51-	=51-	=51-	=51-	=51-	=51-	=51-	=51-	=51-	=51-	=51-	=51-	=51-	=51-	=51-	=51-	=51-	=51-
1C	e-	2C/	-da in	1G	e-	2G/	-da in	1e	e-	2c/	-da in	4cc\	Stra-	1g	e-	2g/	-da in
.	.	.	.	.	.	.	.	.	.	.	.	4cc\	-ua-	.	.	.	.
.	.	2C/	e-	.	.	2E/	e-	.	.	2e\	e-	2cc\	-gan-	.	.	2ccny\	e-
0FF	-ter-	0F	-ter-	0F	-ter-	2.A/	-ter-	0c	-ter-	0f	-ter-	4.a\	-za	0a	-ter-	0cc	-ter-
.	.	.	.	.	.	.	.	.	.	.	.	8b\	d`A-	.	.	.	.
.	.	.	.	.	.	.	.	.	.	.	.	2cc\	-mo-	.	.	.	.
.	.	.	.	.	.	4B\	.	.	.	.	.	.	.	.	.	.	.
*	*	*	*	*	*	*	*	*	*	*	*	*custos:f	*	*	*	*	*
!	!	!	!	!	!	!	!	!	!	!	!	!LO:LB:g=original	!	!	!	!	!
=52-	=52-	=52-	=52-	=52-	=52-	=52-	=52-	=52-	=52-	=52-	=52-	=52-	=52-	=52-	=52-	=52-	=52-
.	.	.	.	.	.	1c	.	.	.	.	.	1f	-re	.	.	.	.
2C/	-no	1C	-no e	2G/	-no	1c	-no e	2e\	-no	1e	-no e	1r	.	2g/	-no	1cc	-no e
4r	.	.	.	4r	.	.	.	4r	.	.	.	.	.	4r	.	.	.
4C/	e	.	.	4E/	e	.	.	4e\	e	.	.	.	.	4g/	e	.	.
*custos:GG	*	*	*	*	*	*	*	*custos:d	*	*	*	*	*	*custos:b	*	*	*
!LO:LB:g=original	!	!	!	!	!	!	!	!LO:LB:g=original	!	!	!	!	!	!LO:LB:g=original	!	!	!
=53-	=53-	=53-	=53-	=53-	=53-	=53-	=53-	=53-	=53-	=53-	=53-	=53-	=53-	=53-	=53-	=53-	=53-
4GG/	mai	2G\	mai	4B\	mai	2d\	mai	4d\	mai	2g\	mai	00r	.	4b\	mai	2b\	mai
4AA/	non	.	.	4A/	non	.	.	4c/	nõ(n)	.	.	.	.	4cc\	nõ(n)	.	.
4BB/	ſtrug-	4r	.	4G/	ſtrug-	4r	.	4B/	ſtrug-	4r	.	.	.	4dd\	ſtrug-	4r	.
4GG/	-g`un	4G\	e	4G/	-ga un	4G/	e	4d\	-g un	4g\	e	.	.	4b\	-ga un	4dd\	e
2C/	co-	4C/	mai	2G/	co-	4E/	mai	2c/	co-	4g\	mai	.	.	2cc\	co-	4ee\	mai
.	.	4D/	nõ(n)	.	.	4F/	nõ(n)	.	.	4f\	nõ(n)	.	.	.	.	4dd\	non
4C/	-re	4E\	ſtrug-	4G/	-re	4G/	ſtrug-	4c/	-re	4e\	ſtrug-	.	.	4g/	-re	4cc\	ſtrug-
*	*ij	*	*	*	*	*	*	*	*ij	*	*	*	*	*	*ij	*	*
4C/	e	4C/	-g` un	4G/	e	4G/	-g`un	4c/	e	4g\	-ga un	.	.	4g/	e	4ee\	-g`un
*	*	*	*	*	*	*	*	*	*	*custos:g	*	*	*	*	*	*	*
!	!	!	!	!	!	!	!	!	!	!LO:LB:g=original	!	!	!	!	!	!	!
=54-	=54-	=54-	=54-	=54-	=54-	=54-	=54-	=54-	=54-	=54-	=54-	=54-	=54-	=54-	=54-	=54-	=54-
4GG/	mai	2G\	co-	2G/	mai	2G/	co-	4B/	mai	2g\	co-	.	.	4b\	mai	2dd\	co-
4AA/	non	.	.	.	.	.	.	4A/	nõ(n)	.	.	.	.	4cc\	nõ(n)	.	.
*	*	*	*	*	*	*	*	*	*	*	*	*	*	*	*	*custos:b	*
!	!	!	!	!	!	!	!	!	!	!	!	!	!	!	!	!LO:LB:g=original	!
4BB/	ſtrug-	4GG/	-re	2G/	non	4G/	-re	4G/	ſtrug-	4d\	-re	.	.	4dd\	ſtrug-	4b\	-re
*	*	*	*ij	*	*	*	*ij	*	*	*	*	*	*	*	*	*	*
4GG/	-g`un	4G\	e	.	.	4G/	e	4d\	-g un	4g\	e	.	.	4b\	-ga un	4dd\	e
2C/	co-	4C/	mai	0G	ſtrug-	4E/	mai	2c/	co-	4g\	mai	.	.	2cc\	co-	4ee\	mai
.	.	4D/	non	.	.	4F/	non	.	.	4f\	non	.	.	.	.	4dd\	nõ(n)
4C/	-re	4E\	ſtrug-	.	.	4G/	ſtrug-	4c/	-re	4e\	ſtrug-	.	.	4g/	-re	4cc\	ſtrug-
*	*Xij	*	*	*	*	*	*	*	*Xij	*	*	*	*	*	*Xij	*	*
4C/	e	4C/	-g` un	.	.	4c\	-g` un	4c/	e	4g\	-ga vn	.	.	4g/	e	4ee\	-ga un
=55-	=55-	=55-	=55-	=55-	=55-	=55-	=55-	=55-	=55-	=55-	=55-	=55-	=55-	=55-	=55-	=55-	=55-
4GG/	mai	2G\	co-	.	.	1B	co-	4d\	mai	2g\	co-	2r	.	4b\	mai	2dd\	co-
4AA/	nõ(n)	.	.	.	.	.	.	4c/	non	.	.	.	.	4cc\	nõ(n)	.	.
4BB/	ſtrug-	4G\	-re	.	.	.	.	4B/	ſtrùg-	4g\	-re	4dd\	Stra-	2dd\	ſtrug-	4dd\	-re
4GG/	-ga un	4G\	e	.	.	.	.	4B/	-ga un	4d\	e	4dd\	-ua-	.	.	4b\	e
!	!	!	!	!	!	!	!	!	!	!LO:N:vis=0	!	!	!	!	!	!	!
2G\	co-	4GG/	mai	1B	-ga	2G/	-re	0.d	co-	0.d	co-	2dd\	-gan-	2b\	-g vn	4b\	mai
.	.	4AA/	non	.	.	.	.	.	.	.	.	.	.	.	.	4cc\	non
*	*	*	*	*	*	*	*Xij	*	*	*	*	*	*	*	*	*	*
4GG/	-re	4BB/	ſtrug-	.	.	2G/	un	.	.	.	.	4.b\	-za	1g\	co-	4dd\	ſtrug-
4G\	vn	4GG/	-g`un	.	.	.	.	.	.	.	.	.	.	.	.	4b\	-ga vn
.	.	.	.	.	.	.	.	.	.	.	.	8cc\	d`A-	.	.	.	.
=56-	=56-	=56-	=56-	=56-	=56-	=56-	=56-	=56-	=56-	=56-	=56-	=56-	=56-	=56-	=56-	=56-	=56-
*	*	*	*	*	*	*lig	*	*	*	*	*	*	*	*	*	*	*
0D	co-	0D	co-	2r	.	1A	co-	.	.	.	.	0dd	-mo-	.	.	0a	co-
.	.	.	.	2A/	un	.	.	.	.	.	.	.	.	4f#X/	.	.	.
.	.	.	.	.	.	.	.	.	.	.	.	.	.	4e/	.	.	.
.	.	.	.	1A	co-	1D	.	.	.	.	.	.	.	1f#X	.	.	.
*	*	*	*	*	*	*Xlig	*	*	*	*	*	*	*	*	*	*	*
=57-	=57-	=57-	=57-	=57-	=57-	=57-	=57-	=57-	=57-	=57-	=57-	=57-	=57-	=57-	=57-	=57-	=57-
00G	-re.	00GG	-re	00G	-re.	00D	-re.	00d	-re.	00d	-re.	00b	-re.	00g	-re.	00b	-re.
*	*	*	*Xij	*	*	*	*	*	*	*	*	*	*	*	*	*	*
==	==	==	==	==	==	==	==	==	==	==	==	==	==	==	==	==	==
*-	*-	*-	*-	*-	*-	*-	*-	*-	*-	*-	*-	*-	*-	*-	*-	*-	*-
!!!system-decoration: [(s1,s2,s3,s4,s5,s6,s7,s8,s9)]
!!!ENC: Filip Voros
!!!END: 2022-06-16
!!!ENC: Jan Barakat
!!!END: 2022-07-26
!!!YEC: Copyright 2022 Narodowy Instytut Fryderyka Chopina (https://polishscores.org)
!!!YEM: License CC-BY-4.0 (https://creativecommons.org/licenses/by/4.0)
